X:1
T:Title
%%score ( 1 2 3 ) { 4 | 5 }
L:1/8
Q:1/4=108
M:4/4
K:F
V:1 treble nm="Grand Piano, Soprano"
V:2 treble 
V:3 treble 
V:4 bass nm="Choir Pad, Isaiah  (Barnby)"
V:5 bass 
V:1
 [CF]2 [CF]2 [CG]2 [B,B]2 | [CA]2 [DG]2 [CG]2 [A,F]2 | [CG]2 [FA]2 [F=B]2 [Ec]2 | %3
w: By~Joseph~Barnby,~1874 * * *|||
 [Ee]2 [Ad]2 [Gd]2 [Ec]2 | [F_e]2 [Fd]2 [Ec]2 [FA]2 | [DB]2 [CA]2 [DF]2 [CA]2 | %6
w: |||
 [CG]2 [DF]2 [FG]2 [FA]2 | [EG]2 F6 | z4 z2 d2- | d z z2 z2 c2- | c2 z2 z4 | [EG]2 F2 [FG]2 [FA]2 | %12
w: ||||||
 [EA]2 [DG]2 [CF]2 [CF]2 | [CE]2 [CF]6- | [CF]2 z2 z4 |] %15
w: |||
V:2
 x8 | x8 | x8 | x8 | x8 | x8 | x8 | x8 | [CG]2 [FA]2 [EB]2 D2 | z c c4 z2 | F2 [Fc]2 [FB]2 [EA]2 | %11
 x8 | x8 | x8 | x8 |] %15
V:3
 x8 | x8 | x8 | x8 | x8 | x8 | x8 | x8 | x8 | E2 F6 | x8 | x8 | x8 | x8 | x8 |] %15
V:4
 A,2 A,2 G,2 F,2 | F,2 F,2 E,2 F,2 | C2 C2 D2 C2 | C2 C2 =B,2 C2 | C2[K:bass] B,2 G,2 F,2 | %5
 G,2 E,2 F,2 E,2 | A,2 A,2 D2 C2 | B,2 A,6 | G,2[K:treble] C2 C2 B,2 | B,2 C6 | F2 E2 D2 C2 | %11
 B,2 A,2 B,2 C2 | C2 B,2 A,2 G,2 | G,2 A,6- | A,2 z2 z4 |] %15
V:5
 F,2 F,2 E,2 D,2 | A,,2 B,,2 C,2 z2 | E,2 F,2 D,2 A,2 | G,2 F,2 G,2 C,2 | A,,2 B,,2 C,2 D,2 | %5
 G,,2 A,,2 D,2 A,,2 | A,,2 D,2 B,,2 C,2 | C,2 F,6 | E,2 F,2 G,2 z2 | G,2 A,6 | A,,2 B,,2 B,,2 C,2 | %11
 C,2 D,2 D,2 A,,2 | A,,2 B,,2 F,,2 C,2 | C,2 F,,6- | F,,2 z2 z4 |] %15

